en/_assets/websql/favicon.svg

<svg width="16" height="16" viewBox="0 0 16 16" fill="none" xmlns="http://www.w3.org/2000/svg">
<path fill-rule="evenodd" clip-rule="evenodd" d="M3 8C3 11.0912 5.00376 13.7145 7.78328 14.6417C7.01303 14.8731 6.07013 15 5 15C2 15 0 14.0027 0 12.5024V3.49761V3.49581C0.00159493 1.99648 2.0012 1 5 1C6.07013 1 7.01302 1.1269 7.78328 1.35826C5.00376 2.28551 3 4.90875 3 8ZM7.00644 8.5C7.04664 10.0427 7.27195 11.4636 7.63706 12.5589C7.77427 12.9705 7.93974 13.3622 8.13895 13.7059C5.88807 12.9723 4.22205 10.9437 4.02051 8.5H7.00644ZM15.9795 8.5C15.7779 10.9438 14.1119 12.9723 11.8609 13.706C12.0602 13.3622 12.2256 12.9705 12.3629 12.5589C12.728 11.4636 12.9533 10.0427 12.9935 8.5H15.9795ZM11.8612 2.29442C14.1119 3.02811 15.7778 5.05645 15.9794 7.5H12.9935C12.9533 5.95727 12.728 4.53644 12.3629 3.44113C12.2257 3.02964 12.0603 2.63808 11.8612 2.29442ZM8.0068 7.5C8.09107 4.43555 8.94298 2.02408 9.98433 2.00018L9.99995 2L10.0156 2.00018C11.0569 2.02407 11.9088 4.43554 11.9931 7.5H8.0068ZM4.02053 7.5C4.22219 5.05648 5.88805 3.02815 8.13872 2.29445C7.93961 2.6381 7.77422 3.02965 7.63706 3.44113C7.27195 4.53644 7.04664 5.95727 7.00644 7.5H4.02053ZM8.0068 8.5C8.09149 11.5798 8.95151 14 9.99995 14C11.0484 14 11.9084 11.5798 11.9931 8.5H8.0068Z" fill="black"/>
</svg>

<svg xmlns="http://www.w3.org/2000/svg" width="16" height="16" fill="none" viewBox="0 0 16 16">
    <path fill="#000" fill-rule="evenodd" d="M3 8a7.003 7.003 0 0 0 4.783 6.642C7.013 14.873 6.07 15 5 15c-3 0-5-.997-5-2.498V3.496C.002 1.996 2.001 1 5 1c1.07 0 2.013.127 2.783.358A7.003 7.003 0 0 0 3 8Zm4.006.5c.04 1.543.266 2.964.631 4.059.137.412.303.803.502 1.147A6.005 6.005 0 0 1 4.02 8.5h2.985Zm8.973 0a6.005 6.005 0 0 1-4.118 5.206c.2-.344.365-.736.502-1.147.365-1.095.59-2.516.63-4.059h2.986Zm-4.118-6.206A6.005 6.005 0 0 1 15.98 7.5h-2.986c-.04-1.543-.265-2.964-.63-4.059a6.237 6.237 0 0 0-.502-1.147ZM8.007 7.5c.084-3.064.936-5.476 1.977-5.5h.032c1.04.024 1.893 2.436 1.977 5.5H8.007Zm-3.986 0a6.005 6.005 0 0 1 4.118-5.206c-.2.344-.365.736-.502 1.147-.365 1.095-.59 2.516-.63 4.059H4.02Zm3.986 1C8.09 11.58 8.952 14 10 14s1.908-2.42 1.993-5.5H8.007Z" clip-rule="evenodd"/>
</svg>
